packages/ui-icons/src/Basic/32/Lightbulb_32.svg

<svg xmlns="http://www.w3.org/2000/svg" viewBox="0 0 40 40"><path d="M20 4C12.38 4 8 8.37 8 16a19.07 19.07 0 0 0 6.07 13.51L15.16 36h9.69l1.08-6.49A19.07 19.07 0 0 0 32 16c0-7.63-4.37-12-12-12Zm3.15 30h-6.3l-.67-4h7.64ZM18 20h4.1l-1.85 8h-.45Zm6.66 8h-2.4L25 16.22l-2-.44-.49 2.22h-5L17 15.78l-2 .44L17.75 28h-2.36C14.29 27 10 22.49 10 16c0-8.26 5.44-10 10-10s10 1.74 10 10c0 6.49-4.28 11-5.38 12Z"/></svg>

<svg id="Ready" xmlns="http://www.w3.org/2000/svg" viewBox="0 0 40 40"><title>Megaicons_work_32_1.8_cp</title><path d="M20,4C12.38,4,8,8.37,8,16a19.07,19.07,0,0,0,6.07,13.51L15.16,36h9.69l1.08-6.49A19.07,19.07,0,0,0,32,16C32,8.37,27.63,4,20,4Zm3.15,30h-6.3l-.67-4h7.64ZM18,20h4.1l-1.85,8H19.8Zm6.66,8H22.26L25,16.22,23,15.78,22.51,18h-5L17,15.78,15,16.22,17.75,28H15.39C14.29,27,10,22.49,10,16,10,7.74,15.44,6,20,6S30,7.74,30,16C30,22.49,25.72,27,24.62,28Z"/></svg>
